!!!OTL: 746. Menschenwuerde.
!!!COM: Volksweise
!!!ARE: Europa, Mitteleuropa, Deutschland
!!!SCT: B0746
!!!TXL: @@DE
!!!YEM: Copyright 1995, estate of Helmut Schaffrath.
**kern	**text
*ICvox	*
*Ivox	*
*clefG2	*
*M4/4	*
*met(c)	*
*k[]	*
*C:	*
!LO:TX:a:t=Ernſt und gemeſſen.	!
{4g	Um-
=1	=1
4.cc	-ſonſt
8g	ſuchſt
8f	du
8e	dir
8d	Freuden-
8c	.
=2	=2
4c	-quellen
4B	.
8r}	.
{8g	weit
8g	ü-
8b	-ber
=3	=3
4.dd	dir
8f	in
8a	un-
8a	-be-
8g	-kannter
8f#	.
=4	=4
2g	Luſt;
4r}	.
{4g	in
=5	=5
4cc	dir
8.cc	trägſt
16cc	du
8ee	Him-
8dd	-mel
8cc	o-
8b	-der
=6	=6
4b	Höl-
4a	-le,
8r}	.
{8f	und
8f	ei-
8d	-nen
=7	=7
4.b	Rich-
8a	-ter
4g	in
4f	der
=8	=8
2e	Bruſt.
4r}	.
==	==
!!!AGN: Moral - Lied, religioes
!!!GTL: Religioese Lieder
!!!ONB: ESAC (Essen Associative Code) Database: BOEHME
!!!AMT: simple quadruple
!!!AIN: vox
!!!EED: Helmut Schaffrath
!!!EEV: 1.0
!!@@COMMENT:"Muendlich 1889 aus dem Elsass."
!!@@END:
!!!URL-scan: https://archive.org/details/BoehmeVtLieder1895/page/n597/mode/2up
!!!ENC: Anna Maria Matuszewska
!!!EEV: 2024/18/07
*-	*-
